X:545
T: Glin Cottage
T: Green Cottage
S: B.Breathnach: "Ceol Rince na hEireann" II/130 (gan ainm)
Z: B.Black
L: 1/8
M: 2/4
R: polka
K: Em
B/A/|GE EE|B,E EF|GE EF|GA B/c/B/A/|
GE EE|B,E Ee|eB BA|1 GF E :|2 GF E2||
Be ee|Be e>d|Be ef|gf ef|
ge fd|eB d>B|AD DE|FA BB/A/ :|

